assets/noun_1093779_cc.svg

<svg enable-background="new 0 0 100 100" fill="#f56c0e" viewBox="0 0 100 100" xmlns="http://www.w3.org/2000/svg"><path d="m88.9 22.4c0-5.7-4.7-10.4-10.4-10.4s-10.4 4.7-10.4 10.4 4.7 10.4 10.4 10.4c5.8-.1 10.4-4.7 10.4-10.4zm-14.7 0c0-2.4 2-4.4 4.4-4.4s4.4 2 4.4 4.4-2 4.4-4.4 4.4-4.4-2-4.4-4.4z"/><path d="m50 12c-5.7 0-10.4 4.7-10.4 10.4s4.7 10.4 10.4 10.4c1.9 0 3.7-.5 5.3-1.5l14 14c-.7 1.4-1.1 3-1.1 4.7 0 4.7 3.1 8.6 7.4 9.9v7.8c-4.3 1.3-7.4 5.2-7.4 9.9 0 5.7 4.7 10.4 10.4 10.4s10.4-4.7 10.4-10.4c0-4.7-3.1-8.6-7.4-9.9v-7.8c4.3-1.3 7.4-5.2 7.4-9.9 0-5.7-4.7-10.4-10.4-10.4-1.9 0-3.6.5-5.1 1.4l-14.2-14.1c.7-1.4 1-2.9 1-4.5.1-5.7-4.6-10.4-10.3-10.4zm-4.4 10.4c0-2.4 2-4.4 4.4-4.4s4.4 2 4.4 4.4-2 4.4-4.4 4.4-4.4-2-4.4-4.4zm37.3 55.2c0 2.4-2 4.4-4.4 4.4s-4.4-2-4.4-4.4 2-4.4 4.4-4.4 4.4 2 4.4 4.4zm-4.3-32c2.4 0 4.4 2 4.4 4.4s-2 4.4-4.4 4.4-4.4-2-4.4-4.4 1.9-4.4 4.4-4.4z"/><path d="m11.1 50c0 5.7 4.7 10.4 10.4 10.4 1 0 1.9-.1 2.7-.4l15.6 15.6c-.1.7-.2 1.3-.2 2 0 5.7 4.7 10.4 10.4 10.4s10.4-4.7 10.4-10.4c0-4.7-3.1-8.6-7.4-9.9v-7.8c4.3-1.3 7.4-5.2 7.4-9.9 0-5.7-4.7-10.4-10.4-10.4s-10.4 4.7-10.4 10.4c0 4.7 3.1 8.6 7.4 9.9v7.8c-1.6.5-3 1.3-4.2 2.4l-13.4-13.4c1.5-1.8 2.4-4.1 2.4-6.7 0-4.7-3.1-8.6-7.4-9.9v-7.8c4.3-1.3 7.4-5.2 7.4-9.9 0-5.7-4.7-10.4-10.4-10.4s-10.4 4.7-10.4 10.4c0 4.7 3.1 8.6 7.4 9.9v7.8c-4.2 1.3-7.3 5.2-7.3 9.9zm34.5 0c0-2.4 2-4.4 4.4-4.4s4.4 2 4.4 4.4-2 4.4-4.4 4.4-4.4-2-4.4-4.4zm4.4 23.3c2.4 0 4.4 2 4.4 4.4s-2 4.3-4.4 4.3-4.4-2-4.4-4.4 2-4.3 4.4-4.3zm-24.2-23.3c0 2.4-2 4.4-4.4 4.4s-4.4-2-4.4-4.4 2-4.4 4.4-4.4 4.4 2 4.4 4.4zm-8.7-27.6c0-2.4 2-4.4 4.4-4.4s4.4 2 4.4 4.4-2 4.4-4.4 4.4-4.4-2-4.4-4.4z"/><path d="m21.4 88c5.7 0 10.4-4.7 10.4-10.4s-4.7-10.4-10.4-10.4-10.4 4.7-10.4 10.4c.1 5.7 4.7 10.4 10.4 10.4zm0-14.7c2.4 0 4.4 2 4.4 4.4s-2 4.4-4.4 4.4-4.4-2-4.4-4.4 2-4.4 4.4-4.4z"/></svg>

<svg xmlns="http://www.w3.org/2000/svg" xmlns:xlink="http://www.w3.org/1999/xlink" version="1.1" x="0px" y="0px" viewBox="0 0 100 100" style="enable-background:new 0 0 100 100;" xml:space="preserve" fill="#f56c0e"><g><path d="M88.9,22.4c0-5.7-4.7-10.4-10.4-10.4c-5.7,0-10.4,4.7-10.4,10.4c0,5.7,4.7,10.4,10.4,10.4C84.3,32.7,88.9,28.1,88.9,22.4z    M74.2,22.4c0-2.4,2-4.4,4.4-4.4s4.4,2,4.4,4.4s-2,4.4-4.4,4.4S74.2,24.8,74.2,22.4z"/><path d="M50,12c-5.7,0-10.4,4.7-10.4,10.4c0,5.7,4.7,10.4,10.4,10.4c1.9,0,3.7-0.5,5.3-1.5l14,14c-0.7,1.4-1.1,3-1.1,4.7   c0,4.7,3.1,8.6,7.4,9.9v7.8c-4.3,1.3-7.4,5.2-7.4,9.9c0,5.7,4.7,10.4,10.4,10.4c5.7,0,10.4-4.7,10.4-10.4c0-4.7-3.1-8.6-7.4-9.9   v-7.8c4.3-1.3,7.4-5.2,7.4-9.9c0-5.7-4.7-10.4-10.4-10.4c-1.9,0-3.6,0.5-5.1,1.4L59.3,26.9c0.7-1.4,1-2.9,1-4.5   C60.4,16.7,55.7,12,50,12z M45.6,22.4c0-2.4,2-4.4,4.4-4.4s4.4,2,4.4,4.4s-2,4.4-4.4,4.4S45.6,24.8,45.6,22.4z M82.9,77.6   c0,2.4-2,4.4-4.4,4.4s-4.4-2-4.4-4.4s2-4.4,4.4-4.4S82.9,75.2,82.9,77.6z M78.6,45.6c2.4,0,4.4,2,4.4,4.4s-2,4.4-4.4,4.4   s-4.4-2-4.4-4.4S76.1,45.6,78.6,45.6z"/><path d="M11.1,50c0,5.7,4.7,10.4,10.4,10.4c1,0,1.9-0.1,2.7-0.4l15.6,15.6c-0.1,0.7-0.2,1.3-0.2,2C39.6,83.3,44.3,88,50,88   s10.4-4.7,10.4-10.4c0-4.7-3.1-8.6-7.4-9.9v-7.8c4.3-1.3,7.4-5.2,7.4-9.9c0-5.7-4.7-10.4-10.4-10.4S39.6,44.3,39.6,50   c0,4.7,3.1,8.6,7.4,9.9v7.8c-1.6,0.5-3,1.3-4.2,2.4L29.4,56.7c1.5-1.8,2.4-4.1,2.4-6.7c0-4.7-3.1-8.6-7.4-9.9v-7.8   c4.3-1.3,7.4-5.2,7.4-9.9c0-5.7-4.7-10.4-10.4-10.4c-5.7,0-10.4,4.7-10.4,10.4c0,4.7,3.1,8.6,7.4,9.9v7.8   C14.2,41.4,11.1,45.3,11.1,50z M45.6,50c0-2.4,2-4.4,4.4-4.4s4.4,2,4.4,4.4s-2,4.4-4.4,4.4S45.6,52.4,45.6,50z M50,73.3   c2.4,0,4.4,2,4.4,4.4S52.4,82,50,82s-4.4-2-4.4-4.4S47.6,73.3,50,73.3z M25.8,50c0,2.4-2,4.4-4.4,4.4s-4.4-2-4.4-4.4s2-4.4,4.4-4.4   S25.8,47.6,25.8,50z M17.1,22.4c0-2.4,2-4.4,4.4-4.4s4.4,2,4.4,4.4s-2,4.4-4.4,4.4S17.1,24.8,17.1,22.4z"/><path d="M21.4,88c5.7,0,10.4-4.7,10.4-10.4c0-5.7-4.7-10.4-10.4-10.4c-5.7,0-10.4,4.7-10.4,10.4C11.1,83.3,15.7,88,21.4,88z    M21.4,73.3c2.4,0,4.4,2,4.4,4.4s-2,4.4-4.4,4.4s-4.4-2-4.4-4.4S19,73.3,21.4,73.3z"/></g>
<!--
<text x="0" y="115" fill="#000000" font-size="5px" font-weight="bold" font-family="'Helvetica Neue', Helvetica, Arial-Unicode, Arial, Sans-serif">Created by Agni</text><text x="0" y="120" fill="#000000" font-size="5px" font-weight="bold" font-family="'Helvetica Neue', Helvetica, Arial-Unicode, Arial, Sans-serif">from the Noun Project</text>
-->
</svg>
